X:9750
T:Loch Rannoch
R:Pipe march
O:Scotland
M:6/8
K:Hp
P:Voice I
A2c e2f|a2f ef2|A2c e2f|e2c cB2|\
A2c e2f|a2f ef2|A2c e2c|cB2 A3::
f2g a2g|f2e ce2|f2e a2c|B2A Bc2|\
e2c a2e|f2a fe2|A2c e2c|cB2 A3:|
P:Voice II
A2A c2d|f2d cd2|A2A c2d|c2A AG2|\
A2A c2d|f2d cd2|A2A c2A|AG2 A3::
d2e f2e|d2c Ac2|d2c f2A|G2A GA2|\
c2A f2c|d2f dc2|A2A c2A|AG2 A3:|


